img/playwright.svg

<svg width="400" height="400" viewBox="0 0 400 400" fill="none" xmlns="http://www.w3.org/2000/svg">
<path d="M136.444 221.556C123.558 225.213 115.104 231.625 109.535 238.032C114.869 233.364 122.014 229.08 131.652 226.348C141.51 223.554 149.92 223.574 156.869 224.915V219.481C150.941 218.939 144.145 219.371 136.444 221.556ZM108.946 175.876L61.0895 188.484C61.0895 188.484 61.9617 189.716 63.5767 191.36L104.153 180.668C104.153 180.668 103.578 188.077 98.5847 194.705C108.03 187.559 108.946 175.876 108.946 175.876ZM149.005 288.347C81.6582 306.486 46.0272 228.438 35.2396 187.928C30.2556 169.229 28.0799 155.067 27.5 145.928C27.4377 144.979 27.4665 144.179 27.5336 143.446C24.04 143.657 22.3674 145.473 22.7077 150.721C23.2876 159.855 25.4633 174.016 30.4473 192.721C41.2301 233.225 76.8659 311.273 144.213 293.134C158.872 289.185 169.885 281.992 178.152 272.81C170.532 279.692 160.995 285.112 149.005 288.347ZM161.661 128.11V132.903H188.077C187.535 131.206 186.989 129.677 186.447 128.11H161.661Z" fill="#2D4552"/>
<path d="M193.981 167.584C205.861 170.958 212.144 179.287 215.465 186.658L228.711 190.42C228.711 190.42 226.904 164.623 203.57 157.995C181.741 151.793 168.308 170.124 166.674 172.496C173.024 167.972 182.297 164.268 193.981 167.584ZM299.422 186.777C277.573 180.547 264.145 198.916 262.535 201.255C268.89 196.736 278.158 193.031 289.837 196.362C301.698 199.741 307.976 208.06 311.307 215.436L324.572 219.212C324.572 219.212 322.736 193.41 299.422 186.777ZM286.262 254.795L176.072 223.99C176.072 223.99 177.265 230.038 181.842 237.869L274.617 263.805C282.255 259.386 286.262 254.795 286.262 254.795ZM209.867 321.102C122.618 297.71 133.166 186.543 147.284 133.865C153.097 112.156 159.073 96.0203 164.029 85.204C161.072 84.5953 158.623 86.1529 156.203 91.0746C150.941 101.747 144.212 119.124 137.7 143.45C123.586 196.127 113.038 307.29 200.283 330.682C241.406 341.699 273.442 324.955 297.323 298.659C274.655 319.19 245.714 330.701 209.867 321.102Z" fill="#2D4552"/>
<path d="M161.661 262.296V239.863L99.3324 257.537C99.3324 257.537 103.938 230.777 136.444 221.556C146.302 218.762 154.713 218.781 161.661 220.123V128.11H192.869C189.471 117.61 186.184 109.526 183.423 103.909C178.856 94.612 174.174 100.775 163.545 109.665C156.059 115.919 137.139 129.261 108.668 136.933C80.1966 144.61 57.179 142.574 47.5752 140.911C33.9601 138.562 26.8387 135.572 27.5049 145.928C28.0847 155.062 30.2605 169.224 35.2445 187.928C46.0272 228.433 81.663 306.481 149.01 288.342C166.602 283.602 179.019 274.233 187.626 262.291H161.661V262.296ZM61.0848 188.484L108.946 175.876C108.946 175.876 107.551 194.288 89.6087 199.018C71.6614 203.743 61.0848 188.484 61.0848 188.484Z" fill="#E2574C"/>
<path d="M341.786 129.174C329.345 131.355 299.498 134.072 262.612 124.185C225.716 114.304 201.236 97.0224 191.537 88.8994C177.788 77.3834 171.74 69.3802 165.788 81.4857C160.526 92.163 153.797 109.54 147.284 133.866C133.171 186.543 122.623 297.706 209.867 321.098C297.093 344.47 343.53 242.92 357.644 190.238C364.157 165.917 367.013 147.5 367.799 135.625C368.695 122.173 359.455 126.078 341.786 129.174ZM166.497 172.756C166.497 172.756 180.246 151.372 203.565 158C226.899 164.628 228.706 190.425 228.706 190.425L166.497 172.756ZM223.42 268.713C182.403 256.698 176.077 223.99 176.077 223.99L286.262 254.796C286.262 254.791 264.021 280.578 223.42 268.713ZM262.377 201.495C262.377 201.495 276.107 180.126 299.422 186.773C322.736 193.411 324.572 219.208 324.572 219.208L262.377 201.495Z" fill="#2EAD33"/>
<path d="M139.88 246.04L99.3324 257.532C99.3324 257.532 103.737 232.44 133.607 222.496L110.647 136.33L108.663 136.933C80.1918 144.611 57.1742 142.574 47.5704 140.911C33.9554 138.563 26.834 135.572 27.5001 145.929C28.08 155.063 30.2557 169.224 35.2397 187.929C46.0225 228.433 81.6583 306.481 149.005 288.342L150.989 287.719L139.88 246.04ZM61.0848 188.485L108.946 175.876C108.946 175.876 107.551 194.288 89.6087 199.018C71.6615 203.743 61.0848 188.485 61.0848 188.485Z" fill="#D65348"/>
<path d="M225.27 269.163L223.415 268.712C182.398 256.698 176.072 223.99 176.072 223.99L232.89 239.872L262.971 124.281L262.607 124.185C225.711 114.304 201.232 97.0224 191.532 88.8994C177.783 77.3834 171.735 69.3802 165.783 81.4857C160.526 92.163 153.797 109.54 147.284 133.866C133.171 186.543 122.623 297.706 209.867 321.097L211.655 321.5L225.27 269.163ZM166.497 172.756C166.497 172.756 180.246 151.372 203.565 158C226.899 164.628 228.706 190.425 228.706 190.425L166.497 172.756Z" fill="#1D8D22"/>
<path d="M141.946 245.451L131.072 248.537C133.641 263.019 138.169 276.917 145.276 289.195C146.513 288.922 147.74 288.687 149 288.342C152.302 287.451 155.364 286.348 158.312 285.145C150.371 273.361 145.118 259.789 141.946 245.451ZM137.7 143.451C132.112 164.307 127.113 194.326 128.489 224.436C130.952 223.367 133.554 222.371 136.444 221.551L138.457 221.101C136.003 188.939 141.308 156.165 147.284 133.866C148.799 128.225 150.318 122.978 151.832 118.085C149.393 119.637 146.767 121.228 143.776 122.867C141.759 129.093 139.722 135.898 137.7 143.451Z" fill="#C04B41"/>
</svg>

<svg fill="none" viewBox="0 0 400 400"><path fill="#2D4552" d="M136.444 221.556c-12.886 3.657-21.34 10.069-26.909 16.476 5.334-4.668 12.479-8.952 22.117-11.684 9.858-2.794 18.268-2.774 25.217-1.433v-5.434c-5.928-.542-12.724-.11-20.425 2.075zm-27.498-45.68L61.09 188.484s.872 1.232 2.487 2.876l40.576-10.692s-.575 7.409-5.568 14.037c9.445-7.146 10.361-18.829 10.361-18.829zm40.059 112.471C81.658 306.486 46.027 228.438 35.24 187.928c-4.984-18.699-7.16-32.861-7.74-42a15.483 15.483 0 01.034-2.482c-3.494.211-5.167 2.027-4.826 7.275.58 9.134 2.755 23.295 7.74 42 10.782 40.504 46.418 118.552 113.765 100.413 14.659-3.949 25.672-11.142 33.939-20.324-7.62 6.882-17.157 12.302-29.147 15.537zm12.656-160.237v4.793h26.416c-.542-1.697-1.088-3.226-1.63-4.793h-24.786z"/><path fill="#2D4552" d="M193.981 167.584c11.88 3.374 18.163 11.703 21.484 19.074l13.246 3.762s-1.807-25.797-25.141-32.425c-21.829-6.202-35.262 12.129-36.896 14.501 6.35-4.524 15.623-8.228 27.307-4.912zm105.441 19.193c-21.849-6.23-35.277 12.139-36.887 14.478 6.355-4.519 15.623-8.224 27.302-4.893 11.861 3.379 18.139 11.698 21.47 19.074l13.265 3.776s-1.836-25.802-25.15-32.435zm-13.16 68.018l-110.19-30.805s1.193 6.048 5.77 13.879l92.775 25.936c7.638-4.419 11.645-9.01 11.645-9.01zm-76.395 66.307c-87.249-23.392-76.701-134.559-62.583-187.237 5.813-21.709 11.789-37.845 16.745-48.661-2.957-.609-5.406.949-7.826 5.87-5.262 10.673-11.991 28.05-18.503 52.376-14.114 52.677-24.662 163.84 62.583 187.232 41.123 11.017 73.159-5.727 97.04-32.023-22.668 20.531-51.609 32.042-87.456 22.443z"/><path fill="#E2574C" d="M161.661 262.296v-22.433l-62.329 17.674s4.606-26.76 37.112-35.981c9.858-2.794 18.269-2.775 25.217-1.433V128.11h31.208c-3.398-10.5-6.685-18.584-9.446-24.201-4.567-9.297-9.249-3.134-19.878 5.756-7.486 6.254-26.406 19.596-54.877 27.268-28.471 7.677-51.489 5.641-61.093 3.978-13.615-2.349-20.736-5.339-20.07 5.017.58 9.134 2.756 23.296 7.74 42 10.782 40.505 46.418 118.553 113.765 100.414 17.592-4.74 30.009-14.109 38.616-26.051h-25.965v.005zM61.085 188.484l47.861-12.608s-1.395 18.412-19.337 23.142c-17.948 4.725-28.524-10.534-28.524-10.534z"/><path fill="#2EAD33" d="M341.786 129.174c-12.441 2.181-42.288 4.898-79.174-4.989-36.896-9.881-61.376-27.163-71.075-35.286-13.749-11.516-19.797-19.519-25.749-7.413-5.262 10.677-11.991 28.054-18.504 52.38-14.113 52.677-24.661 163.84 62.583 187.232 87.226 23.372 133.663-78.178 147.777-130.86 6.513-24.321 9.369-42.738 10.155-54.613.896-13.452-8.344-9.547-26.013-6.451zm-175.289 43.582s13.749-21.384 37.068-14.756c23.334 6.628 25.141 32.425 25.141 32.425l-62.209-17.669zm56.923 95.957c-41.017-12.015-47.343-44.723-47.343-44.723l110.185 30.806c0-.005-22.241 25.782-62.842 13.917zm38.957-67.218s13.73-21.369 37.045-14.722c23.314 6.638 25.15 32.435 25.15 32.435l-62.195-17.713z"/><path fill="#D65348" d="M139.88 246.04l-40.548 11.492s4.405-25.092 34.275-35.036l-22.96-86.166-1.984.603c-28.471 7.678-51.489 5.641-61.093 3.978-13.615-2.348-20.736-5.339-20.07 5.018.58 9.134 2.756 23.295 7.74 42 10.782 40.504 46.418 118.552 113.765 100.413l1.984-.623-11.109-41.679zm-78.795-57.555l47.861-12.609s-1.395 18.412-19.337 23.142c-17.947 4.725-28.524-10.533-28.524-10.533z"/><path fill="#1D8D22" d="M225.27 269.163l-1.855-.451c-41.017-12.014-47.343-44.722-47.343-44.722l56.818 15.882 30.081-115.591-.364-.096c-36.896-9.881-61.375-27.163-71.075-35.286-13.749-11.516-19.797-19.519-25.749-7.413-5.257 10.677-11.986 28.054-18.499 52.38-14.113 52.677-24.661 163.84 62.583 187.231l1.788.403 13.615-52.337zm-58.773-96.407s13.749-21.384 37.068-14.756c23.334 6.628 25.141 32.425 25.141 32.425l-62.209-17.669z"/><path fill="#C04B41" d="M141.946 245.451l-10.874 3.086c2.569 14.482 7.097 28.38 14.204 40.658 1.237-.273 2.464-.508 3.724-.853 3.302-.891 6.364-1.994 9.312-3.197-7.941-11.784-13.194-25.356-16.366-39.694zm-4.246-102c-5.588 20.856-10.587 50.875-9.211 80.985 2.463-1.069 5.065-2.065 7.955-2.885l2.013-.45c-2.454-32.162 2.851-64.936 8.827-87.235a435.638 435.638 0 014.548-15.781 141.16 141.16 0 01-8.056 4.782 413.232 413.232 0 00-6.076 20.584z"/></svg>
